koreader-settings-folder/icons/info-slender.svg

<?xml version="1.0" encoding="UTF-8" standalone="no"?>
<!-- Created with Vectornator (http://vectornator.io/) -->

<svg
   height="100%"
   stroke-miterlimit="10"
   style="fill-rule:nonzero;clip-rule:evenodd;stroke-linecap:round;stroke-linejoin:round;"
   version="1.1"
   viewBox="0 0 256 256"
   width="100%"
   xml:space="preserve"
   id="svg321"
   sodipodi:docname="info-slender.svg"
   inkscape:version="1.2.2 (b0a8486541, 2022-12-01)"
   xmlns:inkscape="http://www.inkscape.org/namespaces/inkscape"
   xmlns:sodipodi="http://sodipodi.sourceforge.net/DTD/sodipodi-0.dtd"
   xmlns="http://www.w3.org/2000/svg"
   xmlns:svg="http://www.w3.org/2000/svg"><sodipodi:namedview
   id="namedview323"
   pagecolor="#ffffff"
   bordercolor="#000000"
   borderopacity="0.25"
   inkscape:showpageshadow="2"
   inkscape:pageopacity="0.0"
   inkscape:pagecheckerboard="0"
   inkscape:deskcolor="#d1d1d1"
   showgrid="false"
   inkscape:zoom="0.921875"
   inkscape:cx="-49.898305"
   inkscape:cy="128"
   inkscape:window-width="1440"
   inkscape:window-height="831"
   inkscape:window-x="0"
   inkscape:window-y="32"
   inkscape:window-maximized="1"
   inkscape:current-layer="svg321" />
<defs
   id="defs310" />
<g
   id="Untitled"
   transform="matrix(0.876364,0,0,0.91215974,16.506884,11.257011)">
<g
   opacity="1"
   id="g318">
<path
   d="M 128,10 C 62.8,10 10,62.8 10,128 10,193.2 62.8,246 128,246 193.2,246 246,193.2 246,128 246,62.8 193.2,10 128,10 Z m 0,221.3 C 71,231.3 24.8,185 24.8,128 24.8,71 71,24.8 128,24.8 185,24.8 231.3,71 231.3,128 231.3,185 185,231.3 128,231.3 Z"
   fill="#444444"
   fill-rule="nonzero"
   opacity="1"
   stroke="none"
   id="path312" />
<path
   d="m 126.9,60.6 v 0 c 4.1,0 7.4,3.3 7.4,7.4 v 0 c 0,4.1 -3.3,7.4 -7.4,7.4 v 0 c -4.1,0 -7.4,-3.3 -7.4,-7.4 v 0 c 0.1,-4.1 3.4,-7.4 7.4,-7.4 z"
   fill="#444444"
   fill-rule="nonzero"
   opacity="1"
   stroke="none"
   id="path314" />
<path
   d="m 129.9,94.3 h -7.8 -7.8 c -4.3,0 -7.8,2.9 -7.8,7.6 0,4.7 3.5,6.2 7.8,6.2 h 7.8 v 74.4 h -7.8 c -4.3,0 -7.8,2.4 -7.8,7 0,4.7 3.5,5.9 7.8,5.9 h 7.8 14.3 9.1 c 4.3,0 7.5,-1.2 7.5,-5.9 0,-4.7 -3.2,-7 -7.5,-7 h -9.1 v -80.7 c 0,-4.6 -2.2,-7.5 -6.5,-7.5 z"
   fill="#444444"
   fill-rule="nonzero"
   opacity="1"
   stroke="none"
   id="path316" />
</g>
</g>
</svg>

<?xml version="1.0" encoding="UTF-8" standalone="no"?>
<!DOCTYPE svg PUBLIC "-//W3C//DTD SVG 1.1//EN" "http://www.w3.org/Graphics/SVG/1.1/DTD/svg11.dtd">
<!-- Created with Vectornator (http://vectornator.io/) -->
<svg height="100%" stroke-miterlimit="10" style="fill-rule:nonzero;clip-rule:evenodd;stroke-linecap:round;stroke-linejoin:round;" version="1.1" viewBox="0 0 256 256" width="100%" xml:space="preserve" xmlns="http://www.w3.org/2000/svg" xmlns:xlink="http://www.w3.org/1999/xlink">
<defs/>
<g id="Untitled">
<g opacity="1">
<path d="M128 10C62.8 10 10 62.8 10 128C10 193.2 62.8 246 128 246C193.2 246 246 193.2 246 128C246 62.8 193.2 10 128 10L128 10ZM128 231.3C71 231.3 24.8 185 24.8 128C24.8 71 71 24.8 128 24.8C185 24.8 231.3 71 231.3 128C231.3 185 185 231.3 128 231.3L128 231.3Z" fill="#444444" fill-rule="nonzero" opacity="1" stroke="none"/>
<path d="M126.9 60.6L126.9 60.6C131 60.6 134.3 63.9 134.3 68L134.3 68C134.3 72.1 131 75.4 126.9 75.4L126.9 75.4C122.8 75.4 119.5 72.1 119.5 68L119.5 68C119.6 63.9 122.9 60.6 126.9 60.6L126.9 60.6Z" fill="#444444" fill-rule="nonzero" opacity="1" stroke="none"/>
<path d="M129.9 94.3L122.1 94.3L114.3 94.3C110 94.3 106.5 97.2 106.5 101.9C106.5 106.6 110 108.1 114.3 108.1L122.1 108.1L122.1 182.5L114.3 182.5C110 182.5 106.5 184.9 106.5 189.5C106.5 194.2 110 195.4 114.3 195.4L122.1 195.4L136.4 195.4L145.5 195.4C149.8 195.4 153 194.2 153 189.5C153 184.8 149.8 182.5 145.5 182.5L136.4 182.5L136.4 101.8C136.4 97.2 134.2 94.3 129.9 94.3Z" fill="#444444" fill-rule="nonzero" opacity="1" stroke="none"/>
</g>
</g>
</svg>
